X:225
T:Osogovsko Oro
M:11/16
O:Macedonia
P:ABACACABACA
Q:1/8=176
Z:Richard Robinson 
%%TUNEURL: http://www.leeds.ac.uk/music/Info/RRTuneBk/gettune/00000695.html
%%ID:00000695
K:Bb min
P:A
=GAB2 B2A BAGF|=GAB2 c2A B2B2|\
=GAB2 B2A BAGF|=GAB2 c2A B2B2 ::
P:B
d2d2 dcB cB2A|f2B2 B2A BABc|\
d2d2 dcB c2BA|e2B2 B3 B2B2::
P:C
K:Bb
e2d2 c2B d2d2|e2d2 c2B B2B2|\
e2d2 c2B d2d2|e2d2 c2B B2B2:|
